X: 1
M: 4/4 % Meter / Taktart
L: 1/4 % Standard Noten Länge
K: C % Tonart: C beendet den Header
A| "Am" e2 "F"fe |"G" d3//e3//"Am" f/ e3//c3// c/ | "C" g3/  g/"F"fe | "G" d1e/ "C"f/e3/ c/ | 
w: Ihr sollt nicht im Dun-kel ver-mo-dern zu Bes-ser em seid ihr no-ch hier: Das
"C"g3//g3// g/ g3//g3// g/| "F" g (c2 c/)c/ | "C"g3//g3// g/ g3//a3// g/|"G" (g2 g3/)g/ |
w:Le-ben will flam-men und lo-dern _und Freun-de das Le-ben seid ihr. _Das 
"Am" c'3//c'3// c'/ "G" b3//b3// a/| "F"g (c2c/)c/ | "C"e3//e3// e/"G" d3//c3// B/ | "C"c4|]
w: Le-ben will flam-men und lo-dern _und Freun-de das Le-ben seid ihr.